modules/zondicons/icons/battery-half.svg

<?xml version="1.0" encoding="UTF-8" standalone="no"?>
<svg width="20px" height="20px" viewBox="0 0 20 20" version="1.1" xmlns="http://www.w3.org/2000/svg" xmlns:xlink="http://www.w3.org/1999/xlink">
    <!-- Generator: Sketch 3.7.2 (28276) - http://www.bohemiancoding.com/sketch -->
    <title>battery-half</title>
    <desc>Created with Sketch.</desc>
    <defs></defs>
    <g id="Page-1" stroke="none" stroke-width="1" fill="none" fill-rule="evenodd">
        <g id="battery-half" fill="#000000">
            <path d="M0,6.0085302 C0,4.8992496 0.898212381,4 1.99079514,4 L18.0092049,4 C19.1086907,4 20,4.90195036 20,6.0085302 L20,13.9914698 C20,15.1007504 19.1017876,16 18.0092049,16 L1.99079514,16 C0.891309342,16 0,15.0980496 0,13.9914698 L0,6.0085302 Z M2,6 L18,6 L18,14 L2,14 L2,6 Z M3,7 L7,7 L7,13 L3,13 L3,7 Z M8,7 L12,7 L12,13 L8,13 L8,7 Z" id="Combined-Shape"></path>
        </g>
    </g>
</svg>

<svg width="20" height="20" viewBox="0 0 20 20" xmlns="http://www.w3.org/2000/svg"><path d="M0 6.009C0 4.899.898 4 1.99 4h16.02C19.108 4 20 4.902 20 6.009v7.982c0 1.11-.898 2.009-1.99 2.009H1.99C.892 16 0 15.098 0 13.991V6.01zM2 6h16v8H2V6zm1 1h4v6H3V7zm5 0h4v6H8V7z" fill="#000" fill-rule="evenodd"/></svg>
